ui/StatusQ/src/assets/img/icons/profile/security.svg

<svg fill="none" height="24" viewBox="0 0 24 24" width="24" xmlns="http://www.w3.org/2000/svg"><g fill="#4360df"><path d="m11.0157 16.1319c.1346.1172.2343.2773.2343.4558v1.4123c0 .4142.3358.75.75.75s.75-.3358.75-.75v-1.4123c0-.1785.0997-.3386.2343-.4558.316-.275.5157-.6801.5157-1.1319 0-.8284-.6716-1.5-1.5-1.5s-1.5.6716-1.5 1.5c0 .4518.1997.8569.5157 1.1319z"/><path clip-rule="evenodd" d="m7.50099 10.0308c.27403-.03408.49901-.25466.49901-.5308v-3.5c0-2.20914 1.79086-4 4-4 2.2091 0 4 1.79086 4 4v3.5c0 .27614.225.49672.499.5308 1.9736.2456 3.501 1.929 3.501 3.9692v4c0 2.2091-1.7909 4-4 4h-8c-2.20914 0-4-1.7909-4-4v-4c0-2.0402 1.52736-3.7236 3.50099-3.9692zm-2.00099 3.9692c0-1.3807 1.11929-2.5 2.5-2.5h8c1.3807 0 2.5 1.1193 2.5 2.5v4c0 1.3807-1.1193 2.5-2.5 2.5h-8c-1.38071 0-2.5-1.1193-2.5-2.5zm4.5-4c-.27614 0-.5-.22386-.5-.5v-3.5c0-1.38071 1.1193-2.5 2.5-2.5s2.5 1.11929 2.5 2.5v3.5c0 .27614-.2239.5-.5.5z" fill-rule="evenodd"/></g></svg>

<svg width="24" height="24" viewBox="0 0 24 24" fill="none" xmlns="http://www.w3.org/2000/svg">
<path d="M11.0157 16.1319C11.1503 16.2491 11.25 16.4092 11.25 16.5877V18C11.25 18.4142 11.5858 18.75 12 18.75C12.4142 18.75 12.75 18.4142 12.75 18V16.5877C12.75 16.4092 12.8497 16.2491 12.9843 16.1319C13.3003 15.8569 13.5 15.4518 13.5 15C13.5 14.1716 12.8284 13.5 12 13.5C11.1716 13.5 10.5 14.1716 10.5 15C10.5 15.4518 10.6997 15.8569 11.0157 16.1319Z" fill="#4360DF"/>
<path fill-rule="evenodd" clip-rule="evenodd" d="M7.50099 10.0308C7.77502 9.99672 8 9.77614 8 9.5V6C8 3.79086 9.79086 2 12 2C14.2091 2 16 3.79086 16 6V9.5C16 9.77614 16.225 9.99672 16.499 10.0308C18.4726 10.2764 20 11.9598 20 14V18C20 20.2091 18.2091 22 16 22H8C5.79086 22 4 20.2091 4 18V14C4 11.9598 5.52736 10.2764 7.50099 10.0308ZM5.5 14C5.5 12.6193 6.61929 11.5 8 11.5H16C17.3807 11.5 18.5 12.6193 18.5 14V18C18.5 19.3807 17.3807 20.5 16 20.5H8C6.61929 20.5 5.5 19.3807 5.5 18V14ZM10 10C9.72386 10 9.5 9.77614 9.5 9.5V6C9.5 4.61929 10.6193 3.5 12 3.5C13.3807 3.5 14.5 4.61929 14.5 6V9.5C14.5 9.77614 14.2761 10 14 10H10Z" fill="#4360DF"/>
</svg>
